X: 148
T: Da zao
L: 1/8
M: 2/4
K: Eb
c2c B [I:setbarnb 1]| 
c d c c | 
B GB2- | 
B2G B | 
c2c d | 
c B A G | 
F EF2- | 
F2c2 | 
c B c d | 
c c B G | 
B4 | 
G Bc2 | 
c d c B | 
A G F E | 
F4 | 
G FE2 | 
F4 | 
B3e | 
c B G F | 
E4 | 
c3e | 
f3g | 
e f d c | 
B3e | 
c B A G | 
B3c | 
B4 |]

@@@ Tune index: 9022
